X:44
T:Mrs. Ferguson of Raith's Strathspey
C:Robert Petrie
S:Petrie's Collection of Strathspey Reels and Country Dances &c., 1790
Z:Steve Wyrick , 3/20/04
N:Petrie's First Collection, page 20
L:1/8
M:C
R:Strathspey
K:F
c/B/|A<FF>A  c>dcB     |A<Fc>A       BGGB    |A<FF>A  c>dc<A |C<FE<G   AFF :|
c   |fcf>g   a<fg>f    |c>f b/a/g/f/ e<(gg>)a|f<cf>g {fg }afcA|C<FE<G   AFF>c|
     f<cf>g {fg }a<fTg>f|c>f b/a/g/f/ e(gg)b  |a<fg<e  fdTc>A |B(dTc>B) AFF |]
